**kern	**kern	**dynam
*part1	*part1	*part1
*staff2	*staff1	*
*I"Piano	*	*
*clefF4	*clefG2	*
*k[f#c#]	*k[f#c#]	*
=1	=1	=1
[4FFn)	(12AL	.
.	12fn	.
.	12cnJ	.
8FF]	12aL	.
.	12f	.
8r	.	.
.	12cJ)	.
=	=	=
!	!LO:TX:b:i:t=cresc.	!
(2E	12r	.
.	(12B-XL	.
.	12c#XJ	.
.	12gL	.
.	12c#	.
.	12B-J)	<
=	=	=
2D	12r	.
.	(12B-XL	.
.	12dJ	.
.	12gL	.
.	12d	.
.	12B-J)	.
=	=	=
4C#X)	12r	[
.	12A'L	.
.	12e'J 12g	.
4Cn^	12r	.
!	!LO:TX:b:i:t=cresc.	!
.	12A#X'L	.
.	12e'J 12g	.
=	=	=
4BBn^	12r	.
.	12Bn'L	.
.	12e'J 12g	.
4BB-X^	12r	.
.	12cn'L	.
.	12e'J 12g	.
=	=	=
!	!	!LO:DY:a
8AA^	12c#X'L	ff
.	12g'	.
8r	.	.
.	12c#'J	.
!	!LO:TX:b:i:t=legg.	!
8AA 8C# 8G	12a'L	.
.	12g'	.
8r	.	.
.	12c#'J	.
=	=	=
8AAA 8AA	12A'L	pp
.	12f#'	.
8r	.	.
.	12d'J	.
8AA 8D 8F#	12a'L	.
.	12f#'	.
8r	.	.
.	12d'J	.
=	=	=
*-	*-	*-
!!!system-decoration: {(s1,s2)}
